src/svg/icon-email.svg

<svg width="11" height="10" viewBox="0 0 11 10" fill="none" xmlns="http://www.w3.org/2000/svg">
<path d="M6.35839 6.24298C6.1093 6.42426 5.81996 6.52008 5.52166 6.52008C5.22337 6.52008 4.93403 6.42426 4.68494 6.24298L0.582287 3.25718C0.559526 3.24062 0.53735 3.22335 0.515625 3.20559V8.09815C0.515625 8.65909 0.932631 9.10427 1.4373 9.10427H9.60599C10.1199 9.10427 10.5277 8.64906 10.5277 8.09815V3.20557C10.5059 3.22337 10.4837 3.24068 10.4609 3.25727L6.35839 6.24298Z" fill="currentColor"/>
<path d="M0.907699 2.72445L5.01036 5.71027C5.16566 5.8233 5.34365 5.8798 5.52164 5.8798C5.69964 5.8798 5.87765 5.82328 6.03296 5.71027L10.1356 2.72445C10.3811 2.54588 10.5277 2.24703 10.5277 1.92449C10.5277 1.36988 10.1144 0.918701 9.60632 0.918701H1.43699C0.928955 0.918723 0.515625 1.3699 0.515625 1.92502C0.515625 2.24703 0.662208 2.54588 0.907699 2.72445Z" fill="currentColor"/>
</svg>

<svg xmlns="http://www.w3.org/2000/svg" width="11" height="10" fill="none" viewBox="0 0 11 10"><path fill="currentColor" d="M6.358 6.243a1.4 1.4 0 0 1-.836.277c-.299 0-.588-.096-.837-.277L.582 3.257l-.066-.051v4.892c0 .561.417 1.006.921 1.006h8.169c.514 0 .922-.455.922-1.006V3.206l-.067.051z"/><path fill="currentColor" d="M.908 2.724 5.01 5.71a.87.87 0 0 0 .512.17.87.87 0 0 0 .511-.17l4.103-2.986a.99.99 0 0 0 .392-.8c0-.554-.414-1.005-.922-1.005H1.437c-.508 0-.921.45-.921 1.006 0 .322.146.62.392.8"/></svg>
